X: 266
T: Bende Oldum
C: Rifat Bey (Sermüezzin, Miralay)
O: Turkey
F: http://compmusic.upf.edu/node/140
N: beyati--sarki--duyek--bende_oldum--rifat_bey
N: makam= beyati
N: form= sarki
N: usul= duyek = 8/4
M: 8/4
L: 1/16
K: C _2/4B   
Q: 1/4=120
%%MIDI tuningsystem comma53
c2 d4 c2 d3f e3/2d/ cd  | _1/4B2 c4 Bc de2d c2 z2  | \
w:   |   | 
c2 de fg fe ef ed f3/2e/ de  | 
w:   | 
c2 d2 de dc dc _1/4Bc d2 z2  | f3/2e/ de fa gf fe ed _7/8e3/2d/ c2  | 
w:   |   | 
gf2e ed2c _1/4Be2d dc2B  | z2 _1/4Bc d2 fe d3/2e/ dc B3/2A/ Ge  | 
w:   |   | 
dc2_1/4B Bc BA A3g ^fg a2  | g2 a6 ag ^fg a4  | \
w:   |   | 
_ba g4 (3ag^f ga/b/ ag gf2_7/8e  | 
w:   | 
e2 e^f g_b ag gf2e dg fe  | _7/8ed2c d3/2c/ _1/4Bc d3c Bc d2  | 
w:   |   | 
f3/2e/ de fa gf fe ed _7/8e3/2d/ c2  | \
w:   | 
gf2e ed2c _1/4Be2d dc2B  | 
w:   | 
z2 _1/4Bc d2 fe d3/2e/ dc B3/2A/ Ge  | \
w:   | 
dc2_1/4B Bc BA A3g ^fg a2  | 
w:   | 
g2 a6 ag ^fg a4  | _ba g4 (3ag^f ga/b/ ag gf2_7/8e  | 
w:   |   | 
e2 e^f g_b ag gf2e dg fe  | _7/8ed2c d3/2c/ _1/4Bc d3c Bc d2  | 
w:   |   | 
|


